static/assets/img/icons/theme/devices/tablet.svg

<svg height="24" viewBox="0 0 24 24" width="24" xmlns="http://www.w3.org/2000/svg"><g fill="none" fill-rule="evenodd"><path d="m0 0h24v24h-24z" opacity="0"/><g fill="#000"><path d="m6.5 4v16h11v-16zm.5-2h10c1.1045695 0 2 .8954305 2 2v16c0 1.1045695-.8954305 2-2 2h-10c-1.1045695 0-2-.8954305-2-2v-16c0-1.1045695.8954305-2 2-2z" fill-rule="nonzero"/><path d="m6.5 4v16h11v-16z" opacity=".3"/></g></g></svg>

<svg width="24px" height="24px" viewBox="0 0 24 24" version="1.1" xmlns="http://www.w3.org/2000/svg" xmlns:xlink="http://www.w3.org/1999/xlink">
    <title>Icon For Tablet</title>
    <g stroke="none" stroke-width="1" fill="none" fill-rule="evenodd">
        <rect opacity="0" x="0" y="0" width="24" height="24"></rect>
        <path d="M6.5,4 L6.5,20 L17.5,20 L17.5,4 L6.5,4 Z M7,2 L17,2 C18.1045695,2 19,2.8954305 19,4 L19,20 C19,21.1045695 18.1045695,22 17,22 L7,22 C5.8954305,22 5,21.1045695 5,20 L5,4 C5,2.8954305 5.8954305,2 7,2 Z" fill="#000000" fill-rule="nonzero"></path>
        <polygon fill="#000000" opacity="0.3" points="6.5 4 6.5 20 17.5 20 17.5 4"></polygon>
    </g>
</svg>
